X: 4
T: The Woman Of The House
R: reel
M: 4/4
L: 1/8
K: Gmaj
DBBA B3A|GB B2 eBdB|(3ABA GB A2(3Bcd|eB B2 eBdB|
DBBA B3A|GB B2 (3efe dB|GABG (3ABA GA |(3BAG AG EG G2:||
f3d eB B2|eBgB eB B2|f3d ed (3Bcd|eaag a3g|
f3d eB B2|eBgB eBBA|GABG (3ABA GA |(3BAG AG EG G2:||


Tune 321	Setting 26528

